packages/gestalt/src/icons/check-circle.svg

<svg width="24" height="24" xmlns="http://www.w3.org/2000/svg"><path fill="#aeaeae" d="M18.88 9.88l-8.66 8.67-5.12-5.13a1.25 1.25 0 0 1 0-1.77c.48-.49 1.28-.49 1.76 0l3.36 3.36 6.9-6.89c.49-.49 1.28-.49 1.76 0 .49.49.49 1.28 0 1.76M12 0C5.37 0 0 5.37 0 12s5.37 12 12 12 12-5.37 12-12S18.63 0 12 0"/></svg>

<svg width="24" height="24" viewBox="0 0 24 24" xmlns="http://www.w3.org/2000/svg"><path fill="#aeaeae" d="M18.88,9.88 L10.22,18.55 L5.10,13.42 C4.61,12.93 4.61,12.14 5.10,11.65 C5.58,11.16 6.38,11.16 6.86,11.65 L10.22,15.01 L17.12,8.12 C17.61,7.63 18.40,7.63 18.88,8.12 C19.37,8.61 19.37,9.40 18.88,9.88 M12.00,0.00 C5.37,0.00 0.00,5.37 0.00,12.00 C0.00,18.63 5.37,24.00 12.00,24.00 C18.63,24.00 24.00,18.63 24.00,12.00 C24.00,5.37 18.63,0.00 12.00,0.00"/></svg>
